X:1
T:Salve sancta parens - Byrd
T:#
%%score 1 2 3 { 4 | 5 }
L:1/8
Q:1/4=80
M:4/4
K:Eb
V:1 treble nm="Soprano" snm="S"
V:2 treble nm="Alto" snm="A"
V:3 treble-8 nm="Tenor" snm="T"
V:4 bass nm="Bass I" snm="B"
V:5 bass 
V:1
 z4!mf!"^Salve sancta Parens" (G3 A | Bc d4) c2 | d2 e2 c4 | =B4 _B3 A | (G2 F2) G4 | %5
w: Sal\- *|* * * ve|sanc- ta Pa-|rens, sanc- ta|Pa\- * rens,|
 z2!f! G2"^William Byrd\n(1542-1623)" c4 |[M:4/4] B4 E2 !>!e2- | ee d2 c4- | c4 c4 | z4!mf! z2 c2 | %10
w: e- nix-|a pu- er\-|* pe- ra Re\-|* gem,|qui|
 (=B3 c) d4- | d4 z4 | F4 B4 | =A2 (c3 B B2- | B2 =A2) B4 | z4 z2 c2 | d2 B2 (e3 d | %17
w: cae\- * lum||ter- ram-|que re\- * *|* * git,|ter-|ram- que re\- *|
 cB!>(! B4 =A2)!>)! | B4 z4 | z4 z2!f! F2 | !>!B3 A G2 A2- | A2 G2 (F2 E2) | D4 z4 | z4 z2!ff! d2 | %24
w: |git|in|sae- cu- la sae\-|* cu- lo\- *|rum,|in|
 !>!e3 d c2 d2- | d2 B2[Q:1/4=78] (c3[Q:1/4=76] =B/[Q:1/4=76]=A/ | %26
w: sae- cu- la sae\-|* cu- lo\- * *|
"^rit."[Q:1/4=74] =B2[Q:1/4=71]!>(! c4[Q:1/4=68]!>(! B2)!>)!!>)! |[Q:1/4=68] !fermata!c8 || %28
w: |rum.|
!p![Q:1/4=80] G3 F (G2 A2) | G4 z4 |"^cresc." e3 d (=B2 c2) | d4 z4 | z2!f! GA B2 G2 | %33
w: Al- le- lu\- *|ia,|al- le- lu\- *|ia,|al- le- lu- ia,|
 z2 EF G2 E2 | GA (B4[Q:1/4=78] A2)[Q:1/4=79][Q:1/4=79] | %35
w: al- le- lu- ia,|al- le- lu\- *|
"^rit."[Q:1/4=77]!>(! G8-[Q:1/4=76][Q:1/4=74][Q:1/4=73] |!p![Q:1/4=70] !fermata!G8!>)! |] %37
w: ia.||
V:2
!mf! (C3 D EF G2- | G2) F2 G2 A2 | G4 G4 | z2 D4 F2 | (E2 DC D4) | =E4 z4 | %6
w: Sal\- * * * *|* ve sanc- ta|Pa- rens,|sanc- ta|Pa\- * * *|rens,|
[M:4/4] z2!f! !courtesy!_E2 G4 | F4 F4 | A3 A E2 (G2- | G2!>(! F2) G4!>)! | z2!mf! G2 B4 | %11
w: e- nix-|a pu-|er- pe- ra Re\-|* * gem,|qui cae-|
 F2 F2 G2 D2- | D2 (F4 =E2) | F8 | z2 C2 D2 B,2 | E8 | D4 (G3 B | AGFE) F4 |!f! F2 !>!G3 F E2 | %19
w: lum ter- ram- que|* re\- *|git,|ter- ram- que|re-|git, re\- *|* * * * git|in sae- cu- la|
 F2 G2 A4 | G G2 F (E2 A,2) | E4 z2!f! G2 | !>!B3 A G2 A2- | A2 G2 F4 | E2!ff! C2 F3 E | D2 G4 F2 | %26
w: sae- cu- lo-|rum, sae- cu- lo\- *|rum, in|sae- cu- la sae\-|* cu- lo-|rum, in sae- cu-|la sae- cu-|
"^rit."!>(! G8 | !fermata!=E8!>)! ||!p! C3 D (=E2 F2) | =E4 z4 |"^cresc." G3 F (G2 A2) | %31
w: lo-|rum.|Al- le- lu\- *|ia,|al- le- lu\- *|
 G4 z2!f! !courtesy!_EF | G2 D2 G3 A | B2 G2 EF (G2- | G2 F2) G2 F2- |"^rit."!>(! F2 E2 D4 | %36
w: ia, al- le-|lu- ia, al- le-|lu- ia, al- le- lu\-|* * ia, al\-|* le- lu-|
!p! !fermata!=E8!>)! |] %37
w: ia.|
V:3
 z8 | z8 |!mf! (G4 e4) | d4 z2 d2- | dc (c4 =B2) | c2!f! c2 _e4- |[M:4/4][K:treble-8] e2 B2 z2 G2 | %7
w: ||Sal\- *|ve sanc-|* ta Pa\- *|rens, e- nix\-|* a pu-|
 B3 B F2 c2- | c2 F2 (c2 e2 |!>(! c4)!mf! c2!>)! e2 | (d3 e) d4 | z2!mf! d2 (=B3 c) | %12
w: er- pe- ra Re\-|* gem, Re\- *|* gem, qui|cae\- * lum,|qui cae\- *|
 d4 !courtesy!_B4 | c2 =A2 d4 | c4 z4 | z4 z2 c2 | f2 d2 z2 (e2- | e2 d2) c2!f! c2 | %18
w: lum ter-|ram- que re-|git,|ter-|ram- que re\-|* * git in|
 !>!d3 c B2 c2- | cd (e4 d2) | e2 e3 B (c2- | c2 Bc d2) G2 | z2!f! d2 !>!e3 d | c2 c4 (BF) | %24
w: sae- cu- la sae\-|* cu- lo\- *|rum, sae- cu- lo\-|* * * * rum,|in sae- cu-|la sae- cu\- *|
 A2 G2 z2!ff! d2 | f3 e c2 f2- |"^rit." f2!>(! e2!>(! d4!>)!!>)! | !fermata!c8 || z8 |!p! c6 c2 | %30
w: lo- rum, in|sae- cu- la sae\-|* cu- lo-|rum.||Al- le-|
 c4 G2 z2 |"^cresc." d3 d (=B2 c2) | d2!f! z2 e3 c | B4 E2 e2- | e2 d2 (Bc d2- | %35
w: lu- ia,|al- le- lu\- *|ia, al- le-|lu- ia, al\-|* le- lu\- * *|
"^rit."!>(! dc c4 =B2) |!p! !fermata!c8!>)! |] %37
w: |ia.|
V:4
 z8 | z8 |!mf! z2 (C,3 D,E,F, | G,6) F,2 | G,2 A,2 G,4 | C,4 z4 |[M:4/4]!f! G,4 B,4- | %7
w: ||Sal\- * * *|* ve|sanc- ta Pa-|rens,|e- nix\-|
 B,2 F,2 A,4- | A,2 C3 C G,2 |!>(! A,4 G,4-!>)! | G,8 | z4!mf! z2 G,2 | (B,3 A,) G,4 | z8 | %14
w: * a pu\-|* er- pe- ra|Re- gem,||qui|cae\- * lum||
 z2 F,2 B,2 G,2 | (CB, B,4 =A,2) | B,4 (E,4 | F,8) | B,,4!f! z2 C,2 | !>!C3 B, A,4 | z2 G,4 F,2 | %21
w: ter- ram- que|re\- * * *|git, re\-||git in|sae- cu- la|sae- cu-|
 (E,>F,G,A, B,A,/B,/ C2- | C2 B,2) C4 | z4 z2!ff! F,2 | !>!C3 B, A,2 B,2- | B,2 G,2 C,4 | %26
w: lo\- * * * * * * *|* * rum,|in|sae- cu- la sae\-|* cu- lo-|
"^rit." D,2!>(! E,F,!>)!!>(!!>(! G,4!>)!!>)! | !fermata!G,8 || z8 |!p!!p! G,3 F, (G,2 A,2) | %30
w: rum sae- cu- lo-|rum.||Al- le- lu\- *|
 G,4 z2"^cresc." C2- | C=B, (D4 C2) | =B,4 z4 |!f! z2 G,A, B,2 G,2 | z4 G,2 =A,2 | %35
w: ia Al\-|* le- lu\- *|ia,|al- le- lu- ia,|al- le-|
"^rit."!>(! (=B,2 C2 D2 G,2) |!p! !fermata!G,8!>)! |] %37
w: lu\- * * *|ia.|
V:5
 z8 | z8 | z8 | z8 | z8 | z4!f! C,4 |[M:4/4] E,8 | B,,4 z2 F,2- | F,2 A,3 A, E,2 | %9
w: |||||e-|nix-|a pu\-|* er- pe- ra|
!>(! F,4 C,4!>)! | z4!mf! z2 G,2 | (B,3 A,) G,4 | z8 | F,4 (D,3 E,) | F,4 B,,2 E,2- | E,2 D,2 C,4 | %16
w: Re- gem,|qui|cae\- * lum,||qui cae\- *|lum ter- ram\-|* que re-|
 B,,4 z4 | z4!f! z2 F,2 | !>!B,3 A, G,2 A,2- | A,2 G,2 F,4 | E,4 z4 | z4 z2!f! C,2 | %22
w: git|in|sae- cu- la sae\-|* cu- lo-|rum,|in|
 !>!G,3 F, E,2 F,2- | F,2 E,2 D,4 | C,4 z4 |!ff! B,,4 A,,4 |"^rit."!>(! G,,8 | !fermata!C,8!>)! || %28
w: sae- cu- la sae\-|* cu- lo-|rum,|sae- cu-|lo-|rum.|
 z8 | C,3 D, (=E,2 F,2) | C,4 z4 |"^cresc." G,3 F, (G,2 A,2) | G,4 z2!f! E,F, | G,2 E,2 z2 C,D, | %34
w: |Al- le- lu\- *|ia|al- le- lu\- *|ia, al- le-|lu- ia, al- le-|
 E,2 B,,2 E,2 F,2 |"^rit." G,8 |!p! !fermata!C,8 |] %37
w: lu- ia, al- le-|lu-|ia.|

